X: 2
T:The Pitman's Courtship
M:9/8
L:1/8
K:Bb
d/2c/2|BAGGDGG2B|AFFFABcAd|BAGGDGG2B|ABccdBBAF|Bcddddd2f/2f/2|Bcddef(ecc
/2c/2|B>cddddd2f/2f/2|edccdB(BA)d|B>AGGDGG2||
% Output from ABC2Win  Version 2.1 i on 3/9/2000
